X: 638
T: Thomas Leixlip the Proud
T: tomas laoi\.gis, cumasa\.c
R: air, jig
%S: s:4 b:16(4+4+4+4+4)
C: O'Carolan
B: O'Neill's 1850 #638
Z: 1997 by John Chambers <jc@trillian.mit.edu>
N: Compacted via repeats and multiple endings [JC]
Q: "Spirited"
M: 6/8
L: 1/8
K: D
|: A "^A"| d(f/e/)(d/c/) dAA | Afe fAA |[1 d(f/e/)(d/c/) dAF | GAc d2 :|
|[2 B(c/B/)(A/G/) A(B/A/)(G/F/) | GAc d2 :| A "^B"| Add d2(f/e/) | (d/c/) (d/e/) (f/g/) afd |
| gfe {e}fdB | AFA HB2  |: (c/d/) "^C"| AFF BGG | AFd (B/A/) (G/F/) (E/D/) |
|[1 AFd (B/A/) (G/F/) (E/D/) | EFA HB2 :|[2 g>fe fdB | ABc d2 |]
